dist/assets/img/catalog-icon-07.svg

<svg width="31" height="30" fill="none" xmlns="http://www.w3.org/2000/svg"><path d="M7 10h1v5H7v-5Z" fill="#000"/><path d="M31 7V2h-2V0h-6v2H9.998L10 0H0v30h31V20h-2V7h2Zm-1-4v3h-1V3h1Zm-2 3h-4V3h4v3Zm-4-5h4v1h-4V1Zm-1 2v3H9.993l.004-3H23ZM9.976 21H18v2H9.973l.003-2Zm-1.01 8H1V1h7.999l-.033 28Zm1.006-5H18v5H9.966l.006-5ZM19 24h11v5H19v-5Zm0-1v-2h11v2H19Zm-9.023-3 .015-13H23v13H9.977ZM28 20h-4V7h4v13Z" fill="#000"/></svg>

<svg width="31" height="30" viewBox="0 0 31 30" fill="none" xmlns="http://www.w3.org/2000/svg">
<path d="M7 10H8V15H7V10Z" fill="black"/>
<path d="M31 7V2H29V0H23V2H9.998L10 0H0V30H31V20H29V7H31ZM30 3V6H29V3H30ZM28 6H24V3H28V6ZM24 1H28V2H24V1ZM23 3V6H9.993L9.997 3H23ZM9.976 21H18V23H9.973L9.976 21ZM8.966 29H1V1H8.999L8.966 29ZM9.972 24H18V29H9.966L9.972 24ZM19 24H30V29H19V24ZM19 23V21H30V23H19ZM9.977 20L9.992 7H23V20H9.977ZM28 20H24V7H28V20Z" fill="black"/>
</svg>
